src/qt/ktv/res/img/ic-check-tor-off.svg

<?xml version="1.0" encoding="UTF-8"?>
<svg id="Capa_1" data-name="Capa 1" xmlns="http://www.w3.org/2000/svg" viewBox="0 0 24 24">
  <defs>
    <style>
      .cls-1 {
        fill: #cea446;
      }
    </style>
  </defs>
  <path id="ic-check-tor-off" class="cls-1" d="m16.5,12c-.7-.6-1.6-1.1-2.5-1.6-.4-.2-1.6-1.2-1.2-2.6l-.9-.1c1.2-1.9,2.9-3.9,4.9-5.7-1.6.5-2.9,1.3-4,2.8.6-1.3,1.6-2.5,2.7-3.8-1.5,1-2.8,2.3-3.6,3.9l.6-2.3c-.9,1.5-1.5,3.1-1.7,4.7l-1.1-.8-.2.2c1,1.9.5,2.9,0,3.2-1,.7-2.6,1.6-3.3,2.4-1.5,1.5-1.9,2.9-1.7,4.8.1,2.4,1.9,4.4,4.2,5.2,1,.3,2,.4,3,.4,1.7,0,3.4-.5,4.7-1.5,1.3-1.1,2.1-2.8,2.1-4.6,0-1.7-.7-3.4-2-4.6Zm-6.6-5h0Zm3.7,13.7c-.3.7-.9,1.4-1.3,1.7h-.7c-.6,0-1.3-.1-1.9-.2-.7-.2-1.2-.5-1.6-1l-.1-.1c-.7-.8-1.5-2.1-1.9-3.3-.1-.4-.2-.8,0-1.3.6-2,1.8-2.7,3-3.6.3-.2.6-.3.9-.5.5-.4.8-1.5,1.1-2.4-.1.7-.3,2.1-1,2.6-.3.2-.6.4-.9.6-1.2.8-2.4,1.5-2.9,3.4-.1.4,0,.8.1,1.2.3,1.2,1.1,2.4,1.8,3.1l.1.1c.4.5.6.7,1.6,1-.2-.1-.4-.2-.6-.4-1.1-.8-1.7-1.8-1.8-3.2-.1-1.1.6-2.3,2-3,.9-.5,1.2-1.2,1.5-2.1-.2,1-.4,1.7-1.4,2.2-1.1.7-2,2-1.9,2.9.1,1.1.9,2.3,1.7,3.1.4.4,1.1.6,1.8.7-.2-.1-.5-.3-.7-.6-.2-.2-.3-.6-.4-.9-.1-.4-.3-.7-.3-1,0-.7.1-1.5.6-2.1.4-.5.6-.6.8-1.1V7.7h.1v14.3c.3-.5.4-1.5.5-2.1,0-.5.1-1,0-1.6-.1-.7-.3-1.5-.3-2,.1.5.4,1.3.5,2,.1.6.1,1.1.1,1.6s-.1.9-.1,1.3c-.1.3-.3.7-.6,1,.6-.4,1-1.1,1.1-1.9.2-1,.2-1.9.2-2.4,0-.4-.2-1.1-.4-1.7-.1-.5-.6-1-.7-1.3-.2-.6-.1-1-.1-1.9.1.8.1,1.4.3,1.7s.4.7.6,1.2c.3.8.5,1.7.5,2.1,0,.7-.1,1.8-.3,2.6-.1.3-.2.5-.3.8.2-.4.4-.9.5-1.3.3-1.5.6-3,.4-3.9,0-.2-.1-.9-.4-1.7-.4-1.1-1-2-1.1-2.2-.2-.6-.3-2.2-.3-3,0,1,.2,2.5.4,2.8.1.2.7,1.2,1.2,2.3.3.7.4,1.4.4,1.6.2,2,0,2.8-.5,4.6-.1.4-.4.8-.6,1.2.5-.5.9-1.2,1-1.7.5-2.2.7-5.1,0-7.3-.4-1.1-1.3-2.1-1.5-2.8-.2-.6-.1-.9-.1-1.8,0,1,.3,1.7.4,2.1.1.2.9,1.2,1.3,2.3.3.7.6,2.5.6,2.6.3,2,.2,3.9-.4,5.5Z"/>
</svg>

<?xml version="1.0" encoding="UTF-8" standalone="no"?>
<!DOCTYPE svg PUBLIC "-//W3C//DTD SVG 1.1//EN" "http://www.w3.org/Graphics/SVG/1.1/DTD/svg11.dtd">
<svg width="100%" height="100%" viewBox="0 0 24 24" version="1.1" xmlns="http://www.w3.org/2000/svg" xmlns:xlink="http://www.w3.org/1999/xlink" xml:space="preserve" xmlns:serif="http://www.serif.com/" style="fill-rule:evenodd;clip-rule:evenodd;stroke-linejoin:round;stroke-miterlimit:2;">
    <path id="ic-check-tor-off" d="M16.5,12C15.8,11.4 14.9,10.9 14,10.4C13.6,10.2 12.4,9.2 12.8,7.8L11.9,7.7C13.1,5.8 14.8,3.8 16.8,2C15.2,2.5 13.9,3.3 12.8,4.8C13.4,3.5 14.4,2.3 15.5,1C14,2 12.7,3.3 11.9,4.9L12.5,2.6C11.6,4.1 11,5.7 10.8,7.3L9.7,6.5L9.5,6.7C10.5,8.6 10,9.6 9.5,9.9C8.5,10.6 6.9,11.5 6.2,12.3C4.7,13.8 4.3,15.2 4.5,17.1C4.6,19.5 6.4,21.5 8.7,22.3C9.7,22.6 10.7,22.7 11.7,22.7C13.4,22.7 15.1,22.2 16.4,21.2C17.7,20.1 18.5,18.4 18.5,16.6C18.5,14.9 17.8,13.2 16.5,12ZM13.6,20.7C13.3,21.4 12.7,22.1 12.3,22.4L11.6,22.4C11,22.4 10.3,22.3 9.7,22.2C9,22 8.5,21.7 8.1,21.2L8,21.1C7.3,20.3 6.5,19 6.1,17.8C6,17.4 5.9,17 6.1,16.5C6.7,14.5 7.9,13.8 9.1,12.9C9.4,12.7 9.7,12.6 10,12.4C10.5,12 10.8,10.9 11.1,10C11,10.7 10.8,12.1 10.1,12.6C9.8,12.8 9.5,13 9.2,13.2C8,14 6.8,14.7 6.3,16.6C6.2,17 6.3,17.4 6.4,17.8C6.7,19 7.5,20.2 8.2,20.9L8.3,21C8.7,21.5 8.9,21.7 9.9,22C9.7,21.9 9.5,21.8 9.3,21.6C8.2,20.8 7.6,19.8 7.5,18.4C7.4,17.3 8.1,16.1 9.5,15.4C10.4,14.9 10.7,14.2 11,13.3C10.8,14.3 10.6,15 9.6,15.5C8.5,16.2 7.6,17.5 7.7,18.4C7.8,19.5 8.6,20.7 9.4,21.5C9.8,21.9 10.5,22.1 11.2,22.2C11,22.1 10.7,21.9 10.5,21.6C10.3,21.4 10.2,21 10.1,20.7C10,20.3 9.8,20 9.8,19.7C9.8,19 9.9,18.2 10.4,17.6C10.8,17.1 11,17 11.2,16.5L11.2,7.7L11.3,7.7L11.3,22C11.6,21.5 11.7,20.5 11.8,19.9C11.8,19.4 11.9,18.9 11.8,18.3C11.7,17.6 11.5,16.8 11.5,16.3C11.6,16.8 11.9,17.6 12,18.3C12.1,18.9 12.1,19.4 12.1,19.9C12.1,20.4 12,20.8 12,21.2C11.9,21.5 11.7,21.9 11.4,22.2C12,21.8 12.4,21.1 12.5,20.3C12.7,19.3 12.7,18.4 12.7,17.9C12.7,17.5 12.5,16.8 12.3,16.2C12.2,15.7 11.7,15.2 11.6,14.9C11.4,14.3 11.5,13.9 11.5,13C11.6,13.8 11.6,14.4 11.8,14.7C12,15 12.2,15.4 12.4,15.9C12.7,16.7 12.9,17.6 12.9,18C12.9,18.7 12.8,19.8 12.6,20.6C12.5,20.9 12.4,21.1 12.3,21.4C12.5,21 12.7,20.5 12.8,20.1C13.1,18.6 13.4,17.1 13.2,16.2C13.2,16 13.1,15.3 12.8,14.5C12.4,13.4 11.8,12.5 11.7,12.3C11.5,11.7 11.4,10.1 11.4,9.3C11.4,10.3 11.6,11.8 11.8,12.1C11.9,12.3 12.5,13.3 13,14.4C13.3,15.1 13.4,15.8 13.4,16C13.6,18 13.4,18.8 12.9,20.6C12.8,21 12.5,21.4 12.3,21.8C12.8,21.3 13.2,20.6 13.3,20.1C13.8,17.9 14,15 13.3,12.8C12.9,11.7 12,10.7 11.8,10C11.6,9.4 11.7,9.1 11.7,8.2C11.7,9.2 12,9.9 12.1,10.3C12.2,10.5 13,11.5 13.4,12.6C13.7,13.3 14,15.1 14,15.2C14.3,17.2 14.2,19.1 13.6,20.7Z" style="fill:rgb(255,239,0);fill-rule:nonzero;"/>
</svg>
